lib/logo_updates/nrk-logo-nrk-mp3-on-light.svg

<svg width="318" height="48" viewBox="0 0 318 48" fill="none" xmlns="http://www.w3.org/2000/svg">
<path d="M0 45V3.00381H13.7802V45H0ZM32.5283 9.68773L40.4532 45H25.3721L15.9092 3.00381H24.3676C26.3072 2.97864 28.1892 3.66237 29.6607 4.92636C31.1347 6.13734 32.1473 7.81844 32.5283 9.68773ZM42.5233 45V3.00381H56.3035V45H42.5233ZM66.7116 18.9743C65.2267 18.9888 63.7656 18.6003 62.4839 17.8504C61.2193 17.1194 60.1688 16.0689 59.438 14.8041C58.6872 13.5222 58.2986 12.0607 58.3134 10.5751C58.2964 9.09861 58.6853 7.64583 59.438 6.3755C60.1766 5.12447 61.2259 4.08533 62.4839 3.35882C63.766 2.60976 65.2269 2.2213 66.7116 2.23484C68.1877 2.21895 69.6399 2.60775 70.9108 3.35882C72.1562 4.09169 73.1943 5.12996 73.9271 6.3755C74.6789 7.64618 75.0677 9.09873 75.0517 10.5751C75.0655 12.0605 74.6769 13.5218 73.9271 14.8041C73.202 16.0633 72.1627 17.113 70.9108 17.8504C69.6398 18.6029 68.1866 18.9918 66.7097 18.9743H66.7116ZM77.1807 45V3.00381H90.9621V45H77.1807ZM108.408 25.9538C108.447 25.9946 108.742 26.4776 109.295 27.403C109.848 28.3283 110.567 29.5114 111.454 30.952C112.341 32.392 113.277 33.9199 114.262 35.536C115.247 37.1521 116.174 38.6803 117.043 40.1202C117.908 41.5602 118.894 43.1867 120 45H104.859C103.912 43.4621 103.055 42.0721 102.286 40.83C101.517 39.5878 100.7 38.2471 99.8334 36.8077C98.9653 35.3698 98.1071 33.9699 97.2587 32.6081C96.4103 31.2464 95.6813 30.0536 95.0714 29.0297C94.459 28.0051 94.0348 27.3149 93.7989 26.9594C93.2139 26.0771 92.8677 25.058 92.7944 24.0019C92.853 22.9883 93.1791 22.0084 93.7397 21.1619C93.9762 20.7676 94.41 20.0675 95.0409 19.062C95.6717 18.0564 96.411 16.8637 97.2587 15.4835C98.1064 14.1034 98.9647 12.6936 99.8334 11.2543C100.702 9.81501 101.519 8.46432 102.286 7.20247C103.056 5.94193 103.914 4.54205 104.859 3.00285H120L108.289 22.1082C107.926 22.6755 107.722 23.3292 107.697 24.0019C107.736 24.7081 107.983 25.3871 108.406 25.9538H108.408Z" fill="#0A2343"/>
<path d="M169.413 3.18865H136V8.38882H149.614V45.1443H155.856V8.38882H169.412L169.413 3.18865Z" fill="#1767CE"/>
<path d="M181.601 14.8008C180.489 15.0979 179.427 15.5558 178.45 16.1599C177.436 16.7895 176.498 17.533 175.656 18.3759C175.515 18.5157 175.378 18.6714 175.239 18.8182V14.4168L169.175 15.3031V45.1449H175.239V22.8197C175.69 22.5069 176.156 22.2173 176.637 21.9521C177.231 21.6258 177.846 21.3392 178.479 21.0942C179.094 20.8578 179.717 20.6511 180.352 20.4748C181.005 20.2935 181.671 20.1648 182.344 20.0897C183.065 20.0105 183.79 19.9907 184.514 20.0305L185.228 14.4758C184.009 14.3893 182.784 14.499 181.601 14.8008Z" fill="#1767CE"/>
<path d="M215.728 41.4211C215.293 41.4609 214.855 41.3958 214.451 41.2312C214.048 41.0665 213.69 40.8074 213.409 40.4757C212.857 39.5288 212.628 38.4304 212.755 37.3437L212.874 25.1707C212.887 23.8945 212.727 22.6225 212.398 21.3888C212.109 20.3068 211.626 19.2856 210.971 18.375C210.31 17.4845 209.47 16.74 208.504 16.1886C207.382 15.5551 206.169 15.0967 204.907 14.8295C203.364 14.4991 201.788 14.3408 200.21 14.3577C198.958 14.3569 197.707 14.4355 196.466 14.5931C195.292 14.7398 194.129 14.9669 192.987 15.2727C191.928 15.5582 190.886 15.9034 189.866 16.3068L189.152 21.3296C190.143 20.9751 191.084 20.6797 191.976 20.4433C192.868 20.207 193.73 20.0099 194.562 19.8523C195.377 19.697 196.201 19.5888 197.029 19.5283C197.841 19.4686 198.644 19.4387 199.438 19.4387C200.651 19.4131 201.861 19.5521 203.035 19.8523C203.892 20.0658 204.679 20.4929 205.323 21.0933C205.897 21.6776 206.307 22.4008 206.512 23.1911C206.767 24.1655 206.887 25.1697 206.87 26.1762L206.863 27.6535L199.913 28.1213C197.536 28.1877 195.194 28.7094 193.016 29.6578C191.387 30.3668 189.979 31.4998 188.944 32.9374C188.065 34.2168 187.598 35.7316 187.606 37.2807C187.595 38.7342 187.953 40.167 188.646 41.4467C189.374 42.7611 190.468 43.8385 191.797 44.5491C193.419 45.3876 195.232 45.7947 197.059 45.7309C198.771 45.7699 200.476 45.4893 202.084 44.9036C203.474 44.3631 204.745 43.5604 205.829 42.5399C206.24 42.1478 206.63 41.7347 206.998 41.302C207.114 41.9136 207.331 42.5017 207.642 43.0422C208.171 43.947 208.986 44.6532 209.96 45.0514C211.037 45.4811 212.189 45.6921 213.349 45.6719C213.706 45.6719 214.053 45.662 214.391 45.6423C214.721 45.6234 215.049 45.5739 215.371 45.4945C215.688 45.4158 215.974 45.3469 216.233 45.2878C216.466 45.2361 216.694 45.167 216.917 45.081L217.571 41.1218C217.243 41.2333 216.904 41.3124 216.56 41.3581C216.284 41.3965 216.006 41.4175 215.728 41.4211ZM206.817 37.8312C206.514 38.1692 206.182 38.4806 205.826 38.762C205.181 39.2683 204.483 39.7041 203.745 40.062C203.009 40.4177 202.23 40.676 201.427 40.8302C200.594 40.9901 199.748 41.0692 198.9 41.0666C197.931 41.0942 196.967 40.9127 196.075 40.5347C195.35 40.2219 194.738 39.6962 194.322 39.0279C193.91 38.3198 193.704 37.5116 193.728 36.6938C193.67 35.7086 193.942 34.7322 194.501 33.9164C195.148 33.1654 196.025 32.6464 196.998 32.4391C198.516 32.0838 200.075 31.9249 201.635 31.9663H206.841L206.817 37.8312Z" fill="#1767CE"/>
<path d="M238.111 1.00247C237.496 0.884287 236.872 0.795629 236.238 0.736537C235.604 0.677444 234.93 0.647811 234.217 0.647811C232.925 0.639578 231.64 0.839228 230.413 1.23883C229.246 1.62032 228.179 2.25631 227.291 3.10026C226.372 3.98917 225.662 5.06859 225.21 6.26167C224.685 7.69991 224.433 9.22278 224.467 10.7526V15.0074H220.008V19.6165H224.467V45.1445H230.531V19.6165H238.855V15.0074H230.531V10.1027C230.518 9.42857 230.629 8.75772 230.859 8.1231C231.053 7.58686 231.368 7.10173 231.779 6.70482C232.21 6.31127 232.731 6.02744 233.296 5.87756C233.963 5.69364 234.654 5.6041 235.346 5.61162C235.823 5.61162 236.277 5.63236 236.715 5.67077C237.153 5.70918 237.576 5.76919 237.993 5.84798C238.41 5.92677 238.804 6.00555 239.182 6.08434C239.518 6.1508 239.846 6.24981 240.163 6.37985L239.925 1.47519C239.331 1.27828 238.725 1.12038 238.111 1.00247Z" fill="#1767CE"/>
<path d="M244.739 45.1449H250.803V14.4168L244.739 15.3031V45.1449Z" fill="#1767CE"/>
<path d="M249.942 2.03606C249.324 1.66128 248.614 1.46679 247.89 1.47473C247.158 1.46887 246.438 1.66301 245.809 2.03606C245.189 2.39703 244.669 2.90447 244.293 3.51337C243.916 4.12656 243.72 4.83327 243.729 5.55213C243.722 6.28001 243.918 6.99555 244.293 7.62034C244.657 8.23844 245.18 8.74853 245.809 9.09766C246.444 9.45265 247.162 9.63594 247.89 9.62941C248.61 9.63791 249.318 9.45432 249.942 9.09766C250.553 8.74587 251.057 8.23515 251.398 7.62034C251.755 6.98924 251.94 6.27617 251.933 5.55213C251.942 4.83719 251.757 4.133 251.398 3.51337C251.045 2.90734 250.544 2.39932 249.942 2.03606Z" fill="#1767CE"/>
<path d="M285.94 15.0072H278.509L268.335 26.1166H266.142V0.529434L260.078 1.41585V45.1443H266.142V30.6667H266.242L278.389 45.1443H286.237L271.815 28.9924L285.94 15.0072Z" fill="#1767CE"/>
<path d="M303.028 28.837L317.153 14.8517H309.722L299.548 25.9611H297.355V0.375L291.291 1.26141V44.9899H297.355V30.5122H297.454L309.602 44.9899H317.45L303.028 28.837Z" fill="#1767CE"/>
</svg>

<svg xmlns="http://www.w3.org/2000/svg" viewBox="0 0 318 48"><path fill="#0A2343" d="M0 45V3.004h13.78V45H0ZM32.528 9.688 40.453 45h-15.08L15.908 3.004h8.459a7.965 7.965 0 0 1 5.293 1.922 8.31 8.31 0 0 1 2.867 4.762ZM42.523 45V3.004h13.78V45h-13.78Zm24.189-26.026a8.213 8.213 0 0 1-4.228-1.124 8.336 8.336 0 0 1-3.046-3.046 8.206 8.206 0 0 1-1.125-4.229 8.056 8.056 0 0 1 1.125-4.2 8.437 8.437 0 0 1 3.046-3.016 8.232 8.232 0 0 1 4.228-1.124 8.083 8.083 0 0 1 4.199 1.124 8.503 8.503 0 0 1 3.016 3.016 8.075 8.075 0 0 1 1.125 4.2 8.226 8.226 0 0 1-1.125 4.23 8.4 8.4 0 0 1-3.016 3.045 8.059 8.059 0 0 1-4.201 1.124h.002ZM77.18 45V3.004h13.781V45H77.181Zm31.227-19.046c.039.04.334.524.887 1.449.553.925 1.272 2.108 2.159 3.549a1143.28 1143.28 0 0 1 5.589 9.168A854.89 854.89 0 0 0 120 45h-15.141c-.947-1.538-1.804-2.928-2.573-4.17a382.214 382.214 0 0 1-2.453-4.022 351.934 351.934 0 0 0-2.574-4.2 213.445 213.445 0 0 1-2.188-3.578 62.753 62.753 0 0 0-1.272-2.07 6.119 6.119 0 0 1-1.005-2.958 5.744 5.744 0 0 1 .946-2.84c.236-.394.67-1.095 1.3-2.1.632-1.006 1.371-2.198 2.219-3.579a636.03 636.03 0 0 0 2.574-4.229c.869-1.439 1.686-2.79 2.453-4.052.77-1.26 1.628-2.66 2.573-4.2H120l-11.711 19.106a3.773 3.773 0 0 0-.592 1.894c.039.706.286 1.385.709 1.952h.002Z"/><path fill="#1767CE" d="M169.413 3.189H136v5.2h13.614v36.755h6.242V8.39h13.556l.001-5.2ZM181.601 14.8a11.768 11.768 0 0 0-3.151 1.36 15.522 15.522 0 0 0-2.794 2.216c-.141.14-.278.295-.417.442v-4.401l-6.064.886v29.842h6.064V22.82a15.281 15.281 0 0 1 3.24-1.726 20.493 20.493 0 0 1 1.873-.62c.653-.18 1.319-.31 1.992-.384.721-.08 1.446-.1 2.17-.06l.714-5.554a11.408 11.408 0 0 0-3.627.325ZM215.728 41.421a2.709 2.709 0 0 1-2.319-.945 5.052 5.052 0 0 1-.654-3.132l.119-12.173a14.118 14.118 0 0 0-.476-3.782 9.247 9.247 0 0 0-1.427-3.014 8.028 8.028 0 0 0-2.467-2.186 12.642 12.642 0 0 0-3.597-1.36 21.346 21.346 0 0 0-4.697-.471c-1.252-.001-2.503.077-3.744.235a25.84 25.84 0 0 0-3.479.68 29.04 29.04 0 0 0-3.121 1.034l-.714 5.023a35.145 35.145 0 0 1 5.41-1.478 21.585 21.585 0 0 1 2.467-.324c.812-.06 1.615-.09 2.409-.09a13.38 13.38 0 0 1 3.597.414c.857.214 1.644.64 2.288 1.241a4.666 4.666 0 0 1 1.189 2.098c.255.975.375 1.979.358 2.985l-.007 1.478-6.95.467a18.577 18.577 0 0 0-6.897 1.537 9.87 9.87 0 0 0-4.072 3.28 7.6 7.6 0 0 0-1.338 4.343 8.611 8.611 0 0 0 1.04 4.166 7.81 7.81 0 0 0 3.151 3.102 10.651 10.651 0 0 0 5.262 1.182 13.77 13.77 0 0 0 5.025-.827 11.591 11.591 0 0 0 3.745-2.364c.411-.392.801-.805 1.169-1.238.116.612.333 1.2.644 1.74a4.778 4.778 0 0 0 2.318 2.01c1.077.43 2.229.64 3.389.62.357 0 .704-.01 1.042-.03.33-.019.658-.068.98-.148.317-.078.603-.147.862-.206a4.77 4.77 0 0 0 .684-.207l.654-3.96a5.32 5.32 0 0 1-1.011.237c-.276.039-.554.06-.832.063Zm-8.911-3.59a7.96 7.96 0 0 1-.991.931c-.645.506-1.343.942-2.081 1.3a9.4 9.4 0 0 1-2.318.768c-.833.16-1.679.24-2.527.237a6.75 6.75 0 0 1-2.825-.532 3.87 3.87 0 0 1-1.753-1.507 4.385 4.385 0 0 1-.594-2.334 4.45 4.45 0 0 1 .773-2.778 4.545 4.545 0 0 1 2.497-1.477 18.228 18.228 0 0 1 4.637-.473h5.206l-.024 5.865ZM238.111 1.002a19.512 19.512 0 0 0-1.873-.265 21.82 21.82 0 0 0-2.021-.09 12.04 12.04 0 0 0-3.804.592 8.255 8.255 0 0 0-3.122 1.861 8.672 8.672 0 0 0-2.081 3.162 12.3 12.3 0 0 0-.743 4.49v4.255h-4.459v4.61h4.459v25.527h6.064V19.617h8.324v-4.61h-8.324v-4.904a5.498 5.498 0 0 1 .328-1.98 3.743 3.743 0 0 1 .92-1.418 3.631 3.631 0 0 1 1.517-.827 7.414 7.414 0 0 1 2.05-.266c.477 0 .931.02 1.369.059.438.038.861.098 1.278.177.417.079.811.158 1.189.236.336.067.664.166.981.296l-.238-4.905a14.39 14.39 0 0 0-1.814-.473ZM244.739 45.145h6.064V14.417l-6.064.886v29.842ZM249.942 2.036a3.873 3.873 0 0 0-2.052-.561 4.017 4.017 0 0 0-2.081.561c-.62.361-1.14.868-1.516 1.477a3.802 3.802 0 0 0-.564 2.04 3.946 3.946 0 0 0 .564 2.067 4.026 4.026 0 0 0 1.516 1.478 4.19 4.19 0 0 0 2.081.531 4.038 4.038 0 0 0 2.052-.531 3.875 3.875 0 0 0 1.456-1.478 4.12 4.12 0 0 0 .535-2.068 3.967 3.967 0 0 0-.535-2.039 4.19 4.19 0 0 0-1.456-1.477ZM285.94 15.007h-7.431l-10.174 11.11h-2.193V.529l-6.064.887v43.728h6.064V30.667h.1l12.147 14.477h7.848l-14.422-16.152 14.125-13.985ZM303.028 28.837l14.125-13.985h-7.431l-10.174 11.11h-2.193V.374l-6.064.886V44.99h6.064V30.512h.099l12.148 14.478h7.848l-14.422-16.153Z"/></svg>
